assets/ic_checkstatus.svg

<svg width="40.000000" height="40.000000" viewBox="0 0 40 40" fill="none" xmlns="http://www.w3.org/2000/svg" xmlns:xlink="http://www.w3.org/1999/xlink">
	<desc>
			Created with Pixso.
	</desc>
	<defs/>
	<rect id="back" rx="20.000000" width="40.000000" height="40.000000" fill="#FF3E79" fill-opacity="1.000000"/>
	<path id="icon" d="M13.5 30C13.5 29.1716 12.8284 28.5 12 28.5L12 11C12 10.4478 12.4478 10 13 10L27 10C27.5522 10 28 10.4478 28 11L28 28.5C27.1716 28.5 26.5 29.1716 26.5 30L25.5 30C25.5 29.1716 24.8284 28.5 24 28.5C23.1716 28.5 22.5 29.1716 22.5 30L21.5 30C21.5 29.1716 20.8284 28.5 20 28.5C19.1716 28.5 18.5 29.1716 18.5 30L17.5 30C17.5 29.1716 16.8284 28.5 16 28.5C15.1716 28.5 14.5 29.1716 14.5 30L13.5 30ZM18.3296 22.3828C19.4705 22.5935 20.5537 22.3445 21.4163 21.7883L23.5254 23.8972C23.8992 24.2712 24.5127 24.2712 24.896 23.8877C25.27 23.5139 25.27 22.9004 24.896 22.5266L22.7871 20.4272C23.324 19.5742 23.5828 18.5483 23.4006 17.4365C23.1035 15.644 21.656 14.1677 19.8538 13.8801C16.9492 13.4202 14.4951 15.8262 14.8596 18.7114C15.0896 20.5327 16.5276 22.0471 18.3296 22.3828ZM16.7058 18.0588C16.7058 16.76 17.76 15.7058 19.0588 15.7058C20.3577 15.7058 21.4119 16.76 21.4119 18.0588C21.4119 19.3577 20.3577 20.4116 19.0588 20.4116C17.76 20.4116 16.7058 19.3577 16.7058 18.0588Z" clip-rule="evenodd" fill="#FFFFFF" fill-opacity="1.000000" fill-rule="evenodd"/>
</svg>

<svg width="40" height="40" fill="none" xmlns="http://www.w3.org/2000/svg"><rect rx="20" width="40" height="40" fill="#FF3E79"/><path d="M13.5 30a1.5 1.5 0 0 0-1.5-1.5V11a1 1 0 0 1 1-1h14a1 1 0 0 1 1 1v17.5a1.5 1.5 0 0 0-1.5 1.5h-1a1.5 1.5 0 0 0-3 0h-1a1.5 1.5 0 0 0-3 0h-1a1.5 1.5 0 0 0-3 0h-1Zm4.83-7.617a4.236 4.236 0 0 0 3.086-.595l2.11 2.11a.969.969 0 0 0 1.37-1.371l-2.109-2.1a4.246 4.246 0 0 0 .614-2.99c-.297-1.793-1.745-3.27-3.547-3.557a4.318 4.318 0 0 0-4.994 4.831c.23 1.822 1.668 3.336 3.47 3.672Zm-1.624-4.324a2.354 2.354 0 0 1 4.706 0 2.354 2.354 0 0 1-4.706 0Z" clip-rule="evenodd" fill="#FFF" fill-rule="evenodd"/></svg>
